X:19004
T:Salmon Tails up the Water
R:Reel
C:Trad.
O:England, Northumberland
M:4/4
L:1/8
Q:1/4=200
K:G
"G"G2E2D2E2|G4G3A|B2d2 "D"A2BA|"C"G2E2 "D"D4|"G"G2E2D2E2|G4G3A|B2d2 "D"A2BA|("G"G4G4):|
"G"B2d2d4|"C"c2e2e4|"G"d2B2 "D"A2BA|"G"G2E2 "D"D4|"G"B2d2d4|"C"c2e2e3f|"Em"g2f2e2d2|"C"e2"D"f2" G"g4|
"G"B2d2d4|"C"c2e2e4|"G"d2B2 "D"A2BA|"G"G2E2 "D"D4|"G"G2E2D2E2|G4 G3A|B2d2 "D"A2BA|("G"G4G4)|]

